X:20
T: Ritter und Magd
N: Q2055S
O: Nordeuropa, Daenemark
N: Daenische Fassung der Ballade. Dritte Zeile = Refrain auf
N: sinnfreie Silben.
R: Ballade, Betrug, Schwangerschaft, Tod, Selbstmord, Herr und Magd
M: 4/4
L: 1/8
K: A
E | AGAFE2EE | AGAFE3
E | AGABc2ec | B4Az2
E | AGAFE3E | AGAFE3
E | AGABc2ec | B4Az2

